X:1
T:Sommarqvällen
T:Sommarqvällen
T:Klewe
C:Klewe
%%score [ 1 2 3 4 ]
L:1/8
Q:1/4=72
M:6/8
K:Ab
V:1 treble-8 nm="T1"
V:2 treble-8 nm="T2"
V:3 bass nm="B1"
V:4 bass nm="B2"
V:1
"^Andante espress."!mf! A | c2 c!<(! (ed) c!<)! | f2 f!>(! e2!>)! e | a2 a g2 c | f2 f =e2 _e | %5
w: Var|hel- sad stil- * la|som- mar- qväll, som|öf- ver slott och|öf- ver fjäll din|
!<(! (ed)!<)! c (fd) c |!>(! B3- B!>)! z!p! A | c2 e (_gf) e |!<(! d2 f!<)! f2!mf! B | %9
w: ro- * sen- slö- * ja|sänkt; _ var|hel- sad hel- * ga|sab- bats- frid, som|
 =d2 f (ag) f |!<(! =e2 g!<)! g2!f! c | a2 g f2 _e | (eag fe)!>(! d | c2!>)! c"^dim." (cd) B | %14
w: ef- ter da- * gens|larm och strid en|huld na- tur oss|skänkt, _ _ _ _ en|huld na- tur _ oss|
 A3- A z |] %15
w: skänkt. _|
V:2
!mf! C | E2 A!<(! A2 A!<)! | A2 B!>(! e2!>)! d | c2 F (F=E) B | (BA) B c2 A |!<(! A2!<)! A A2 A | %6
w: Var|hel- sad stil- la|som- mar- qväll, som|öf- ver slott _ och|öf- * ver fjäll din|ro- sen- slö- ja|
!>(! A3- A!>)! z!p! A | (EA) c c2 c |!<(! (cB) B!<)! c2!mf! B | (FB) =d d2 d | %10
w: sänkt; _ var|hel- * sad hel- ga|sab- * bats- frid, som|ef- * ter da- gens|
!<(! (=dc) c!<)! =B2!f! _B | (Ac) =e (fA) B | (e3 dc)!>(! B | A2!>)! A"^dim." A2 G | E3- E z |] %15
w: larm _ och strid en|huld _ na- tur _ oss|skänkt, _ _ en|huld na- tur oss|skänkt. _|
V:3
!mf! E, | (A,G,) _G,!<(! F,2 E,!<)! | (D,F,) =G,!>(! A,2!>)! G, | (A,E,) F, (G,C) G, | %4
w: Var|hel- * sad stil- la|som- * mar- qväll, som|öf- * ver slott _ och|
 F,2 F, G,2 A, |!<(! F,2!<)! F, F,2 F, |!>(! E,3- E,!>)! z!p! A, | (A,G,) _G, (E,F,) G, | %8
w: öf- ver fjäll din|ro- sen- slö- ja|sänkt; _ var|hel- * sad hel- * ga|
!<(! F,2 F,!<)! =A,2!mf! B, | (B,=A,) _A, (F,G,) A, |!<(! G,2 C!<)! D2!f! G, | (CA,) B, A,2 G, | %12
w: sab- bats- frid, som|ef- * ter da- * gens|larm och strid en|huld _ na- tur oss|
 (A,3- A,_G,)!>(! F, | (E,A,)!>)! =G,"^dim." F,2 D, | C,3- C, z |] %15
w: skänkt, _ _ en|huld _ na- tur oss|skänkt. _|
V:4
!mf! A,, | A,,2 A,,!<(! A,,2 A,,!<)! | D,2 D,!>(! C,2!>)! B,, | A,,2 A,, C,2 C, | D,2 D, C,2 C, | %5
w: Var|hel- sad stil- la|som- mar- qväll, som|öf- ver slott och|öf- ver fjäll din|
!<(! F,2!<)! E, D,2 D, |!>(! E,3- E,!>)! z!p! A, | A,,2 A,, =A,,2 A,, | %8
w: ro- sen- slö- ja|sänkt; _ var|hel- sad hel- ga|
!<(! B,,2 D,!<)! F,2!mf! B, | B,,2 B,, =B,,2 B,, |!<(! C,2 =E,!<)! F,2!f! E, | F,2 C, D,2 D, | %12
w: sab- bats- frid, som|ef- ter da- gens|larm och strid en|huld na- tur oss|
 (C,3 D,=A,,)!>(! B,, | E,2!>)! E,"^dim." (F,B,,) E, | A,,3- A,, z |] %15
w: skänkt, _ _ en|huld na- tur _ oss|skänkt. _|

